FORWARD 60 LEFT 90
FORWARD 60 LEFT 90
FORWARD 60 LEFT 90
FORWARD 60 LEFT 90
LEFT 90
FORWARD 9
LEFT 70
FORWARD 9
LEFT 180
FORWARD 60 LEFT 90
FORWARD 60 LEFT 90
FORWARD 60 LEFT 90
FORWARD 60 LEFT 90
LEFT 90
FORWARD 11
LEFT 65
FORWARD 11
LEFT 180
FORWARD 60 LEFT 90
FORWARD 60 LEFT 90
FORWARD 60 LEFT 90
FORWARD 60 LEFT 90
LEFT 90
FORWARD 11
LEFT 65
FORWARD 11
LEFT 180
FORWARD 60 LEFT 90
FORWARD 60 LEFT 90
FORWARD 60 LEFT 90
FORWARD 60 LEFT 90
