FORWARD 1 LEFT 1
FORWARD 1 LEFT 1
FORWARD 1 LEFT 1
FORWARD 1 LEFT 1
FORWARD 1 LEFT 1
FORWARD 1 LEFT 1
FORWARD 1 LEFT 1
FORWARD 1 LEFT 1
FORWARD 1 LEFT 1
FORWARD 1 LEFT 1
FORWARD 1 LEFT 1
FORWARD 1 LEFT 1
FORWARD 1 LEFT 1
FORWARD 1 LEFT 1
FORWARD 1 LEFT 1
FORWARD 1 LEFT 1
FORWARD 1 LEFT 1
FORWARD 1 LEFT 1
FORWARD 1 LEFT 1
FORWARD 1 LEFT 1
FORWARD 1 LEFT 1
FORWARD 1 LEFT 1
FORWARD 1 LEFT 1
FORWARD 1 LEFT 1
FORWARD 1 LEFT 1
FORWARD 1 LEFT 1
FORWARD 1 LEFT 1
FORWARD 1 LEFT 1
FORWARD 1 LEFT 1
FORWARD 1 LEFT 1
FORWARD 1 LEFT 1
FORWARD 1 LEFT 1
FORWARD 1 LEFT 1
FORWARD 1 LEFT 1
FORWARD 1 LEFT 1
FORWARD 1 LEFT 1
FORWARD 1 LEFT 1
FORWARD 1 LEFT 1
FORWARD 1 LEFT 1
FORWARD 1 LEFT 1
FORWARD 1 LEFT 1
FORWARD 1 LEFT 1
FORWARD 1 LEFT 1
FORWARD 1 LEFT 1
FORWARD 1 LEFT 1
FORWARD 1 LEFT 1
FORWARD 1 LEFT 1
FORWARD 1 LEFT 1
FORWARD 1 LEFT 1
FORWARD 1 LEFT 1
FORWARD 1 LEFT 1
FORWARD 1 LEFT 1
FORWARD 1 LEFT 1
FORWARD 1 LEFT 1
FORWARD 1 LEFT 1
FORWARD 1 LEFT 1
FORWARD 1 LEFT 1
FORWARD 1 LEFT 1
FORWARD 1 LEFT 1
FORWARD 1 LEFT 1
FORWARD 1 LEFT 1
FORWARD 1 LEFT 1
FORWARD 1 LEFT 1
FORWARD 1 LEFT 1
FORWARD 1 LEFT 1
FORWARD 1 LEFT 1
FORWARD 1 LEFT 1
FORWARD 1 LEFT 1
FORWARD 1 LEFT 1
FORWARD 1 LEFT 1
FORWARD 1 LEFT 1
FORWARD 1 LEFT 1
FORWARD 1 LEFT 1
FORWARD 1 LEFT 1
FORWARD 1 LEFT 1
FORWARD 1 LEFT 1
FORWARD 1 LEFT 1
FORWARD 1 LEFT 1
FORWARD 1 LEFT 1
FORWARD 1 LEFT 1
FORWARD 1 LEFT 1
FORWARD 1 LEFT 1
FORWARD 1 LEFT 1
FORWARD 1 LEFT 1
FORWARD 1 LEFT 1
FORWARD 1 LEFT 1
FORWARD 1 LEFT 1
FORWARD 1 LEFT 1
FORWARD 1 LEFT 1
FORWARD 1 LEFT 1
FORWARD 1 LEFT 1
FORWARD 1 LEFT 1
FORWARD 1 LEFT 1
FORWARD 1 LEFT 1
FORWARD 1 LEFT 1
FORWARD 1 LEFT 1
FORWARD 1 LEFT 1
FORWARD 1 LEFT 1
FORWARD 1 LEFT 1
FORWARD 1 LEFT 1
FORWARD 1 LEFT 1
FORWARD 1 LEFT 1
FORWARD 1 LEFT 1
FORWARD 1 LEFT 1
FORWARD 1 LEFT 1
FORWARD 1 LEFT 1
FORWARD 1 LEFT 1
FORWARD 1 LEFT 1
FORWARD 1 LEFT 1
FORWARD 1 LEFT 1
FORWARD 1 LEFT 1
FORWARD 1 LEFT 1
FORWARD 1 LEFT 1
FORWARD 1 LEFT 1
FORWARD 1 LEFT 1
FORWARD 1 LEFT 1
FORWARD 1 LEFT 1
FORWARD 1 LEFT 1
FORWARD 1 LEFT 1
FORWARD 1 LEFT 1
FORWARD 1 LEFT 1
FORWARD 1 LEFT 1
FORWARD 1 LEFT 1
FORWARD 1 LEFT 1
FORWARD 1 LEFT 1
FORWARD 1 LEFT 1
FORWARD 1 LEFT 1
FORWARD 1 LEFT 1
FORWARD 1 LEFT 1
FORWARD 1 LEFT 1
FORWARD 1 LEFT 1
FORWARD 1 LEFT 1
FORWARD 1 LEFT 1
FORWARD 1 LEFT 1
FORWARD 1 LEFT 1
FORWARD 1 LEFT 1
FORWARD 1 LEFT 1
FORWARD 1 LEFT 1
FORWARD 1 LEFT 1
FORWARD 1 LEFT 1
FORWARD 1 LEFT 1
FORWARD 1 LEFT 1
FORWARD 1 LEFT 1
FORWARD 1 LEFT 1
FORWARD 1 LEFT 1
FORWARD 1 LEFT 1
FORWARD 1 LEFT 1
FORWARD 1 LEFT 1
FORWARD 1 LEFT 1
FORWARD 1 LEFT 1
FORWARD 1 LEFT 1
FORWARD 1 LEFT 1
FORWARD 1 LEFT 1
FORWARD 1 LEFT 1
FORWARD 1 LEFT 1
FORWARD 1 LEFT 1
FORWARD 1 LEFT 1
FORWARD 1 LEFT 1
FORWARD 1 LEFT 1
FORWARD 1 LEFT 1
FORWARD 1 LEFT 1
FORWARD 1 LEFT 1
FORWARD 1 LEFT 1
FORWARD 1 LEFT 1
FORWARD 1 LEFT 1
FORWARD 1 LEFT 1
FORWARD 1 LEFT 1
FORWARD 1 LEFT 1
FORWARD 1 LEFT 1
FORWARD 1 LEFT 1
FORWARD 1 LEFT 1
FORWARD 1 LEFT 1
FORWARD 1 LEFT 1
FORWARD 1 LEFT 1
FORWARD 1 LEFT 1
FORWARD 1 LEFT 1
FORWARD 1 LEFT 1
FORWARD 1 LEFT 1
FORWARD 1 LEFT 1
FORWARD 1 LEFT 1
FORWARD 1 LEFT 1
FORWARD 1 LEFT 1
FORWARD 1 LEFT 1
FORWARD 1 LEFT 1
FORWARD 1 LEFT 1
FORWARD 1 LEFT 1
FORWARD 1 LEFT 1
FORWARD 1 LEFT 1
FORWARD 1 LEFT 1
FORWARD 1 LEFT 1
FORWARD 1 LEFT 1
FORWARD 1 LEFT 1
FORWARD 1 LEFT 1
FORWARD 1 LEFT 1
FORWARD 1 LEFT 1
FORWARD 1 LEFT 1
FORWARD 1 LEFT 1
FORWARD 1 LEFT 1
FORWARD 1 LEFT 1
FORWARD 1 LEFT 1
FORWARD 1 LEFT 1
FORWARD 1 LEFT 1
FORWARD 1 LEFT 1
FORWARD 1 LEFT 1
FORWARD 1 LEFT 1
FORWARD 1 LEFT 1
FORWARD 1 LEFT 1
FORWARD 1 LEFT 1
FORWARD 1 LEFT 1
FORWARD 1 LEFT 1
FORWARD 1 LEFT 1
FORWARD 1 LEFT 1
FORWARD 1 LEFT 1
FORWARD 1 LEFT 1
FORWARD 1 LEFT 1
FORWARD 1 LEFT 1
FORWARD 1 LEFT 1
FORWARD 1 LEFT 1
FORWARD 1 LEFT 1
FORWARD 1 LEFT 1
FORWARD 1 LEFT 1
FORWARD 1 LEFT 1
FORWARD 1 LEFT 1
FORWARD 1 LEFT 1
FORWARD 1 LEFT 1
FORWARD 1 LEFT 1
FORWARD 1 LEFT 1
FORWARD 1 LEFT 1
FORWARD 1 LEFT 1
FORWARD 1 LEFT 1
FORWARD 1 LEFT 1
FORWARD 1 LEFT 1
FORWARD 1 LEFT 1
FORWARD 1 LEFT 1
FORWARD 1 LEFT 1
FORWARD 1 LEFT 1
FORWARD 1 LEFT 1
FORWARD 1 LEFT 1
FORWARD 1 LEFT 1
FORWARD 1 LEFT 1
FORWARD 1 LEFT 1
FORWARD 1 LEFT 1
FORWARD 1 LEFT 1
FORWARD 1 LEFT 1
FORWARD 1 LEFT 1
FORWARD 1 LEFT 1
FORWARD 1 LEFT 1
FORWARD 1 LEFT 1
FORWARD 1 LEFT 1
FORWARD 1 LEFT 1
FORWARD 1 LEFT 1
FORWARD 1 LEFT 1
FORWARD 1 LEFT 1
FORWARD 1 LEFT 1
FORWARD 1 LEFT 1
FORWARD 1 LEFT 1
FORWARD 1 LEFT 1
FORWARD 1 LEFT 1
FORWARD 1 LEFT 1
FORWARD 1 LEFT 1
FORWARD 1 LEFT 1
FORWARD 1 LEFT 1
FORWARD 1 LEFT 1
FORWARD 1 LEFT 1
FORWARD 1 LEFT 1
FORWARD 1 LEFT 1
FORWARD 1 LEFT 1
FORWARD 1 LEFT 1
FORWARD 1 LEFT 1
FORWARD 1 LEFT 1
FORWARD 1 LEFT 1
FORWARD 1 LEFT 1
FORWARD 1 LEFT 1
FORWARD 1 LEFT 1
FORWARD 1 LEFT 1
FORWARD 1 LEFT 1
FORWARD 1 LEFT 1
FORWARD 1 LEFT 1
FORWARD 1 LEFT 1
FORWARD 1 LEFT 1
FORWARD 1 LEFT 1
FORWARD 1 LEFT 1
FORWARD 1 LEFT 1
FORWARD 1 LEFT 1
FORWARD 1 LEFT 1
FORWARD 1 LEFT 1
FORWARD 1 LEFT 1
FORWARD 1 LEFT 1
FORWARD 1 LEFT 1
FORWARD 1 LEFT 1
FORWARD 1 LEFT 1
FORWARD 1 LEFT 1
FORWARD 1 LEFT 1
FORWARD 1 LEFT 1
FORWARD 1 LEFT 1
FORWARD 1 LEFT 1
FORWARD 1 LEFT 1
FORWARD 1 LEFT 1
FORWARD 1 LEFT 1
FORWARD 1 LEFT 1
FORWARD 1 LEFT 1
FORWARD 1 LEFT 1
FORWARD 1 LEFT 1
FORWARD 1 LEFT 1
FORWARD 1 LEFT 1
FORWARD 1 LEFT 1
FORWARD 1 LEFT 1
FORWARD 1 LEFT 1
FORWARD 1 LEFT 1
FORWARD 1 LEFT 1
FORWARD 1 LEFT 1
FORWARD 1 LEFT 1
FORWARD 1 LEFT 1
FORWARD 1 LEFT 1
FORWARD 1 LEFT 1
FORWARD 1 LEFT 1
FORWARD 1 LEFT 1
FORWARD 1 LEFT 1
FORWARD 1 LEFT 1
FORWARD 1 LEFT 1
FORWARD 1 LEFT 1
FORWARD 1 LEFT 1
FORWARD 1 LEFT 1
FORWARD 1 LEFT 1
FORWARD 1 LEFT 1
FORWARD 1 LEFT 1
FORWARD 1 LEFT 1
FORWARD 1 LEFT 1
FORWARD 1 LEFT 1
FORWARD 1 LEFT 1
FORWARD 1 LEFT 1
FORWARD 1 LEFT 1
FORWARD 1 LEFT 1
FORWARD 1 LEFT 1
FORWARD 1 LEFT 1
FORWARD 1 LEFT 1
FORWARD 1 LEFT 1
FORWARD 1 LEFT 1
FORWARD 1 LEFT 1
FORWARD 1 LEFT 1
FORWARD 1 LEFT 1
FORWARD 1 LEFT 1
FORWARD 1 LEFT 1
FORWARD 1 LEFT 1
FORWARD 1 LEFT 1
FORWARD 1 LEFT 1
FORWARD 1 LEFT 1
FORWARD 1 LEFT 1
FORWARD 1 LEFT 1
FORWARD 1 LEFT 1
FORWARD 1 LEFT 1
FORWARD 1 LEFT 1
FORWARD 1 LEFT 1
FORWARD 1 LEFT 1
FORWARD 1 LEFT 1
FORWARD 1 LEFT 1
FORWARD 1 LEFT 1
FORWARD 1 LEFT 1
FORWARD 1 LEFT 1
FORWARD 0 LEFT 1

